icons/outline/ball-baseball.svg

<!--
tags: [sport, game, competition, pitch]
category: Sport
version: "1.48"
unicode: "efa0"
-->
<svg
  xmlns="http://www.w3.org/2000/svg"
  width="24"
  height="24"
  viewBox="0 0 24 24"
  fill="none"
  stroke="currentColor"
  stroke-width="2"
  stroke-linecap="round"
  stroke-linejoin="round"
>
  <path d="M5.636 18.364a9 9 0 1 0 12.728 -12.728a9 9 0 0 0 -12.728 12.728zm6.859 -15.344a9 9 0 0 1 -9.475 9.475m17.96 -.99a9 9 0 0 0 -9.475 9.475m-2.505 -11.98l2 2m2 2l2 2m-4 -8l2 1m-6 3l1 2m8 -2l1 2m-6 3l2 1" />
</svg>

<!--
tags: [sport, game, competition, pitch]
category: Sport
version: "1.48"
unicode: "efa0"
-->
<svg
  xmlns="http://www.w3.org/2000/svg"
  width="24"
  height="24"
  viewBox="0 0 24 24"
  fill="none"
  stroke="currentColor"
  stroke-width="2"
  stroke-linecap="round"
  stroke-linejoin="round"
>
    <path d="M5.636 18.364a9 9 0 1 0 12.728 -12.728a9 9 0 0 0 -12.728 12.728zM12.495 3.02a9 9 0 0 1 -9.475 9.475M20.98 11.505a9 9 0 0 0 -9.475 9.475M9 9l2 2M13 13l2 2M11 7l2 1M7 11l1 2M16 11l1 2M11 16l2 1" />
</svg>
